gruvbox_icons/symbolic/status/airplane-mode-symbolic.svg

<?xml version="1.0" encoding="UTF-8"?>
<svg height="16px" viewBox="0 0 16 16" width="16px" xmlns="http://www.w3.org/2000/svg">
    <path d="m 6.496094 1 c -0.792969 0 -0.78125 0.035156 -0.53125 1.03125 l 1.625 4.96875 h -4.5 l -1.21875 -1.78125 c -0.140625 -0.207031 -0.121094 -0.21875 -0.34375 -0.21875 h -0.21875 c -0.425782 0 -0.28125 0.4375 -0.28125 0.4375 l 0.28125 2.5625 l -0.28125 2.5625 s -0.140625 0.4375 0.25 0.4375 h 0.25 c 0.210937 0 0.203125 -0.007812 0.34375 -0.21875 l 1.21875 -1.78125 h 4.5 l -1.625 4.9375 c -0.261719 1.046875 -0.265625 1.0625 0.53125 1.0625 c 0.433594 0 0.433594 -0.011719 0.71875 -0.5 l 3.6875 -5.5 h 3.09375 c 0.554687 0 1 -0.445312 1 -1 s -0.445313 -1 -1 -1 h -3.09375 l -3.6875 -5.5 c -0.265625 -0.457031 -0.28125 -0.5 -0.65625 -0.5 z m 0 0" fill="#2e3436"/>
</svg>

<svg xmlns="http://www.w3.org/2000/svg" width="16" height="16" version="1.1">
 <path style="fill:#cdd3e0" d="M 6.5,1 C 5.7,1 5.72,1.03 5.97,2.03 L 7.59,7 H 3.09 L 1.87,5.22 C 1.73,5.01 1.75,5 1.53,5 H 1.31 C 0.88003,5 1.03,5.43 1.03,5.43 L 1.31,8 1.03,10.56 C 1.03,10.56 0.89003,11 1.28,11 H 1.53 C 1.74,11 1.73,10.99 1.87,10.78 L 3.09,9 H 7.59 L 5.97,13.93 C 5.7,14.98 5.7,15 6.5,15 6.93,15 6.93,14.98 7.22,14.5 L 10.9,9 H 14 C 14.55,9 15,8.55 15,8 15,7.44 14.55,7 14,7 H 10.9 L 7.22,1.5 C 6.95,1.04 6.93,1 6.56,1 Z"/>
</svg>
